svgs/sharp-regular/table-layout.svg

<svg xmlns="http://www.w3.org/2000/svg" viewBox="0 0 512 512"><!--! Font Awesome Pro 6.6.0 by @fontawesome - https://fontawesome.com License - https://fontawesome.com/license (Commercial License) Copyright 2024 Fonticons, Inc. --><path d="M464 80l0 80L48 160l0-80 416 0zM48 432l0-224 96 0 0 224-96 0zm144 0l0-224 272 0 0 224-272 0zM48 32L0 32 0 80 0 432l0 48 48 0 416 0 48 0 0-48 0-352 0-48-48 0L48 32z"/></svg>

<svg xmlns="http://www.w3.org/2000/svg" viewBox="0 0 512 512"><!--! Font Awesome Pro 6.4.0 by @fontawesome - https://fontawesome.com License - https://fontawesome.com/license (Commercial License) Copyright 2023 Fonticons, Inc. --><path d="M464 80v80H48V80H464zM48 432V208h96V432H48zm144 0V208H464V432H192zM48 32H0V80 432v48H48 464h48V432 80 32H464 48z"/></svg>
